X: 13529
T: Flowers Of Spring, The
R: jig
M: 6/8
K: Adorian
|:~A3 ABd|edB G2B|dBB gBB|def gfg|
~A3 ABd|edB G2B|dBB gBB|1 ABA A2e:|2 ABA A3||
|:~e3 age|dBA G2B|dBB gBB|def gfg|
eae a2e|dBA G2B|dBB gBB|1 ABA A2d:|2 ABA A2e||

